material-icons/material-design-light/scalable/applications/youtube.svg

﻿<?xml version="1.0" encoding="utf-8"?>
<!DOCTYPE svg PUBLIC "-//W3C//DTD SVG 1.1//EN" "http://www.w3.org/Graphics/SVG/1.1/DTD/svg11.dtd">
<svg xmlns="http://www.w3.org/2000/svg" xmlns:xlink="http://www.w3.org/1999/xlink" version="1.1" baseProfile="full" width="24" height="24" viewBox="0 0 24.00 24.00" enable-background="new 0 0 24.00 24.00" xml:space="preserve">
	<path fill="#0D0E0E" fill-opacity="1" stroke-linejoin="round" d="M 8.95769,15.1048L 8.04755,15.1048L 8.04755,14.5779C 7.70252,14.9734 7.41003,15.1731 7.09119,15.1731C 6.81144,15.1731 6.6172,15.0412 6.51991,14.8027C 6.4608,14.6578 6.41889,14.4314 6.41889,14.0989L 6.41889,10.2667L 7.32902,10.2667L 7.32902,13.8594L 7.32902,14.1947C 7.35024,14.3291 7.40734,14.3782 7.52308,14.3782C 7.69729,14.3782 7.85494,14.2269 8.04755,13.9552L 8.04755,10.2667L 8.95769,10.2667L 8.95769,15.1048 Z M 4.83812,13.6678L 4.8386,11.7517C 4.8865,11.2727 4.73752,11.0482 4.4549,11.0482C 4.17229,11.0482 4.02379,11.2727 4.07169,11.7517L 4.07169,13.6678C 4.02379,14.1468 4.17222,14.3845 4.45483,14.3845C 4.73745,14.3845 4.88602,14.1468 4.83812,13.6678 Z M 5.74826,11.8475L 5.74826,13.572C 5.74826,14.0861 5.66357,14.4413 5.48001,14.6833C 5.23757,15.0132 4.83812,15.188 4.4549,15.188C 4.07169,15.188 3.67912,15.0132 3.43701,14.6833C 3.25052,14.4413 3.16155,14.0861 3.16155,13.572L 3.16244,11.8517C 3.16244,11.3347 3.26248,10.9422 3.44896,10.6979C 3.69107,10.3669 4.02114,10.2315 4.4549,10.2315C 4.83812,10.2315 5.21837,10.3669 5.46085,10.6979C 5.64441,10.9422 5.74826,11.3305 5.74826,11.8475 Z M 2.15561,12.4702L 2.15561,15.1048L 1.19757,15.1048L 1.19757,12.4702C 1.19757,12.4702 0.20482,9.24014 2.03451e-005,8.63807L 1.00596,8.63807L 1.67825,11.1613L 2.34722,8.63807L 3.35316,8.63807L 2.15561,12.4702 Z M 23.8572,9.16057C 23.8572,9.16057 24,10.3128 24,11.4652L 24,12.5456C 24,13.6978 23.8572,14.8501 23.8572,14.8501C 23.8572,14.8501 23.7174,15.8313 23.2885,16.2635C 22.7446,16.8307 22.1349,16.8335 21.8553,16.8667C 19.8537,17.0107 16.8481,17.0152 16.8481,17.0152C 16.8481,17.0152 13.1291,16.9814 11.9848,16.8721C 11.6665,16.8127 10.9516,16.8307 10.4076,16.2635C 9.97867,15.8313 9.83909,14.8501 9.83909,14.8501C 9.83909,14.8501 9.69605,13.6978 9.69605,12.5456L 9.69605,11.4652C 9.69605,10.3128 9.83909,9.16057 9.83909,9.16057C 9.83909,9.16057 9.97867,8.1793 10.4076,7.74716C 10.9516,7.18005 11.5612,7.17719 11.8408,7.14403C 13.8424,6.99999 16.8449,6.99999 16.8449,6.99999L 16.8512,6.99999C 16.8512,6.99999 19.8537,6.99999 21.8553,7.14403C 22.1349,7.17719 22.7446,7.18005 23.2885,7.74716C 23.7174,8.1793 23.8572,9.16057 23.8572,9.16057 Z M 21.0769,11.606C 21.0769,11.1583 21.1997,11.0362 21.4893,11.0362C 21.7768,11.0362 21.8912,11.1692 21.8912,11.612L 21.8912,12.1349L 21.0769,12.1358L 21.0769,11.606 Z M 22.803,12.8534L 22.8028,11.8742C 22.8028,11.3626 22.7021,10.9883 22.5208,10.7462C 22.2777,10.4187 21.9324,10.2453 21.4973,10.2453C 21.0546,10.2453 20.7093,10.4187 20.4585,10.7462C 20.2742,10.9883 20.1667,11.3838 20.1667,11.8954L 20.1667,13.572C 20.1667,14.0806 20.2849,14.4367 20.4692,14.6762C 20.7199,15.0033 21.0652,15.1666 21.5189,15.1666C 21.972,15.1666 22.3278,14.9953 22.5677,14.6477C 22.6732,14.4943 22.7413,14.3203 22.7706,14.1281C 22.7784,14.0413 22.8014,13.8435 22.8014,13.564L 22.8014,13.4283L 21.8913,13.4283C 21.8913,13.7762 21.8928,13.9831 21.8848,14.0303C 21.8353,14.2621 21.7108,14.3782 21.4973,14.3782C 21.1997,14.3782 21.0739,14.1557 21.0769,13.7137L 21.0769,12.8534L 22.803,12.8534 Z M 18.6818,13.7157C 18.6818,14.1947 18.5689,14.3782 18.3188,14.3782C 18.176,14.3782 18.0115,14.3048 17.8664,14.1598L 17.8675,11.2547C 18.0125,11.1116 18.176,11.0362 18.3188,11.0362C 18.5689,11.0362 18.6818,11.1769 18.6818,11.6559L 18.6818,13.7157 Z M 18.7827,10.2378C 18.4637,10.2378 18.1466,10.434 17.8664,10.7787L 17.8675,8.68597L 17.0052,8.68597L 17.0052,15.1048L 17.8675,15.1048L 17.8687,14.6225C 18.1584,14.981 18.4744,15.1666 18.7827,15.1666C 19.128,15.1666 19.3804,14.9817 19.4961,14.6258C 19.554,14.4229 19.5919,14.1105 19.5919,13.6678L 19.5919,11.7517C 19.5919,11.2983 19.5338,10.9883 19.4759,10.7958C 19.3602,10.4373 19.128,10.2378 18.7827,10.2378 Z M 16.2867,15.1048L 16.2867,10.3146L 15.3766,10.3146L 15.3766,13.9552C 15.1839,14.2269 15.0263,14.3782 14.8521,14.3782C 14.7363,14.3782 14.6792,14.3291 14.658,14.1947L 14.658,13.8594L 14.658,10.3146L 13.7479,10.3146L 13.7479,14.0989C 13.7479,14.4314 13.7898,14.6578 13.8489,14.8027C 13.9462,15.0412 14.1404,15.1731 14.4202,15.1731C 14.739,15.1731 15.0315,14.9734 15.3766,14.5779L 15.3766,15.1048L 16.2867,15.1048 Z M 12.8378,15.1048L 12.8378,9.59611L 13.8916,9.59611L 13.8916,8.68597L 10.8738,8.68697L 10.8738,9.59611L 11.8797,9.59611L 11.8797,15.1048L 12.8378,15.1048 Z "/>
</svg>

<?xml version="1.0" encoding="UTF-8" standalone="no"?>
<svg id="svg2" xmlns:rdf="http://www.w3.org/1999/02/22-rdf-syntax-ns#" xmlns="http://www.w3.org/2000/svg" xml:space="preserve" height="24" width="24" version="1.1" enable-background="new 0 0 24.00 24.00" xmlns:cc="http://creativecommons.org/ns#" xmlns:dc="http://purl.org/dc/elements/1.1/" viewBox="0 0 24.00 24.00"><metadata id="metadata10"><rdf:RDF><cc:Work rdf:about=""><dc:format>image/svg+xml</dc:format><dc:type rdf:resource="http://purl.org/dc/dcmitype/StillImage"/><dc:title/></cc:Work></rdf:RDF></metadata><path id="path4" stroke-linejoin="round" d="m8.9577 15.105h-0.9101v-0.527c-0.3451 0.395-0.6376 0.595-0.9564 0.595-0.2798 0-0.474-0.132-0.5713-0.37-0.0591-0.145-0.101-0.372-0.101-0.704v-3.832h0.9101v3.592 0.336c0.0212 0.134 0.0783 0.183 0.1941 0.183 0.1742 0 0.3318-0.151 0.5245-0.423v-3.688h0.9101v4.838zm-4.1196-1.437l0.0005-1.916c0.0479-0.479-0.1011-0.704-0.3837-0.704s-0.4311 0.225-0.3832 0.704v1.916c-0.0479 0.479 0.1005 0.716 0.3831 0.716s0.4312-0.237 0.3833-0.716zm0.9102-1.82v1.724c0 0.514-0.0847 0.869-0.2683 1.111-0.2424 0.33-0.6419 0.505-1.0251 0.505s-0.7758-0.175-1.0179-0.505c-0.1865-0.242-0.2754-0.597-0.2754-1.111l0.0008-1.72c0-0.517 0.1001-0.91 0.2866-1.154 0.2421-0.331 0.5721-0.466 1.0059-0.466 0.3832 0 0.7635 0.135 1.0059 0.466 0.1836 0.244 0.2875 0.632 0.2875 1.15zm-3.5927 0.622v2.635h-0.958v-2.635s-0.99278-3.2299-1.1976-3.8319h1.006l0.6722 2.5229 0.669-2.5229h1.006l-1.1976 3.8319zm21.701-3.3094s0.143 1.1524 0.143 2.3044v1.081c0 1.152-0.143 2.304-0.143 2.304s-0.14 0.981-0.569 1.414c-0.543 0.567-1.153 0.57-1.433 0.603-2.001 0.144-5.007 0.148-5.007 0.148s-3.719-0.034-4.863-0.143c-0.319-0.059-1.033-0.041-1.577-0.608-0.4293-0.433-0.5689-1.414-0.5689-1.414s-0.1431-1.152-0.1431-2.304v-1.081c0-1.152 0.1431-2.3044 0.1431-2.3044s0.1396-0.9813 0.5689-1.4134c0.544-0.5672 1.153-0.57 1.433-0.6032 2.001-0.144 5.004-0.144 5.004-0.144h0.006s3.003 0 5.004 0.144c0.28 0.0332 0.89 0.036 1.433 0.6032 0.429 0.4321 0.569 1.4134 0.569 1.4134zm-2.78 2.4454c0-0.448 0.123-0.57 0.412-0.57 0.288 0 0.402 0.133 0.402 0.576v0.523l-0.814 0.001v-0.53zm1.726 1.247v-0.979c0-0.511-0.101-0.886-0.282-1.128-0.243-0.327-0.589-0.501-1.024-0.501-0.442 0-0.788 0.174-1.039 0.501-0.184 0.242-0.291 0.638-0.291 1.149v1.677c0 0.509 0.118 0.865 0.302 1.104 0.251 0.327 0.596 0.491 1.05 0.491 0.453 0 0.809-0.172 1.049-0.519 0.105-0.154 0.173-0.328 0.203-0.52 0.007-0.087 0.03-0.284 0.03-0.564v-0.136h-0.91c0 0.348 0.002 0.555-0.006 0.602-0.05 0.232-0.174 0.348-0.388 0.348-0.297 0-0.423-0.222-0.42-0.664v-0.861h1.726zm-4.121 0.863c0 0.479-0.113 0.662-0.363 0.662-0.143 0-0.307-0.073-0.453-0.218l0.002-2.905c0.144-0.143 0.308-0.219 0.451-0.219 0.25 0 0.363 0.141 0.363 0.62v2.06zm0.101-3.478c-0.319 0-0.636 0.196-0.917 0.541l0.002-2.093h-0.863v6.419h0.863l0.001-0.483c0.289 0.359 0.605 0.545 0.914 0.545 0.345 0 0.597-0.185 0.713-0.541 0.058-0.203 0.096-0.516 0.096-0.958v-1.916c0-0.454-0.058-0.764-0.116-0.956-0.116-0.359-0.348-0.558-0.693-0.558zm-2.496 4.867v-4.79h-0.91v3.64c-0.193 0.272-0.351 0.423-0.525 0.423-0.116 0-0.173-0.049-0.194-0.183v-0.336-3.544h-0.91v3.784c0 0.332 0.042 0.559 0.101 0.704 0.097 0.238 0.291 0.37 0.571 0.37 0.319 0 0.612-0.2 0.957-0.595v0.527h0.91zm-3.449 0v-5.5089h1.054v-0.9101l-3.018 0.001v0.9091h1.006v5.5089h0.958z"/></svg>
